data/icons/hicolor_actions_scalable_sidebar-show-symbolic.svg

<?xml version="1.0" encoding="UTF-8" standalone="no"?>
<svg xmlns:dc="http://purl.org/dc/elements/1.1/" xmlns:cc="http://creativecommons.org/ns#" xmlns:rdf="http://www.w3.org/1999/02/22-rdf-syntax-ns#" xmlns:svg="http://www.w3.org/2000/svg" xmlns="http://www.w3.org/2000/svg" xmlns:sodipodi="http://sodipodi.sourceforge.net/DTD/sodipodi-0.dtd" xmlns:inkscape="http://www.inkscape.org/namespaces/inkscape" height="16.001" width="16" version="1.1" id="svg6344" inkscape:version="0.48.4 r9939" sodipodi:docname="hicolor_actions_scalable_sidebar-show-symbolic.svg">
   <metadata id="metadata6352">
      <rdf:RDF>
         <cc:Work rdf:about="">
            <dc:format>image/svg+xml</dc:format>
            <dc:type rdf:resource="http://purl.org/dc/dcmitype/StillImage" />
         </cc:Work>
      </rdf:RDF>
   </metadata>
   <defs id="defs6350" />
   <sodipodi:namedview pagecolor="#ffffff" bordercolor="#666666" borderopacity="1" objecttolerance="10" gridtolerance="10" guidetolerance="10" inkscape:pageopacity="0" inkscape:pageshadow="2" inkscape:window-width="1366" inkscape:window-height="716" id="namedview6348" showgrid="true" inkscape:snap-bbox="true" inkscape:zoom="29.498157" inkscape:cx="13.471011" inkscape:cy="7.0893427" inkscape:window-x="0" inkscape:window-y="27" inkscape:window-maximized="1" inkscape:current-layer="svg6344">
      <inkscape:grid type="xygrid" id="grid6354" />
   </sodipodi:namedview>
   <path style="fill:#bebebe" d="M 2 1 C 0.67794601 1 2.3520977e-18 1.6101451 0 3 L 0 13 C 0 14.291 0.79800001 15 2 15 L 14 15 C 15.2016 15 16 14.291 16 13 L 16 3 C 16 1.7118464 15.271203 1 14 1 C 11.02695 1.0000002 5.8868 1.0113 2 1 z M 2 3 L 4 3 L 4 13 L 2 13 L 2 3 z M 6 3 L 14 3 L 14 13 L 6 13 L 6 3 z M 8 4 L 8 12 L 9 12 L 12.75 8.6875 C 12.90552 8.55 13 8.28122 13 8 C 13 7.7188005 12.9055 7.45 12.75 7.3125 L 8.90625 4 L 8 4 z " id="path4" />
</svg>

<?xml version="1.0" encoding="UTF-8" standalone="no"?>
<svg xmlns="http://www.w3.org/2000/svg" height="16" width="16" version="1.1">
 <path d="m2 1c-1.322 0-2 0.6101-2 2v10c0 1.291 0.798 2 2 2h12c1.2016 0 2-0.709 2-2v-10c0-1.2882-0.729-2-2-2-2.973 0-8.1132 0.0113-12 0zm0 2h2v10h-2v-10zm4 0h8v10h-8v-10zm2 1v8h1l3.75-3.3125c0.156-0.1375 0.25-0.4063 0.25-0.6875s-0.094-0.55-0.25-0.6875l-3.8438-3.3125h-0.9062z" fill="#bebebe"/>
</svg>
